X:1
T:Merry Christmas, Mr. Lawrence
T:Merry Christmas, Mr. Lawrence
T:Ryuichi Salamoto
C:Ryuichi Salamoto
%%score { ( 1 3 ) | 2 }
L:1/8
Q:1/4=106
M:3/4
K:Db
V:1 treble nm="Piano" snm="Pno."
V:3 treble 
V:2 treble 
V:1
"Gbmaj7" fe fb fe | fe fb fe |"Ab69" fe fa fe | fe fa fe |"Db9/F" ed ea ed | ed ea ed | %6
"Bbm9" ed ea ed | cB cf cB |"Gbmaj7" fe fb fe | fe fb fe |"Ab69" fe fa fe | fe fa fe | %12
"Db9/F" ed ec' ed | ae dc' ed |"Bbm9" ed ec' ed | ae dc' ed :: %16
[M:4/4]S"Gbmaj7"!mf! [ee'][ff'][ee'][Bb] [ee'] z z2 |"Ab69" z2 [ee'][ff'] [ee'][ff'][aa'][ff'] | %18
"Bbm9" [ee'][ff'][ee'][Bb] [dd'] z z2 |"Fm/Ab"!8va(! z2 [d'd'']2 [c'c''][aa'] [ff']2!8va)! | %20
"Gbm7" [ee'][ff'][ee'][Bb] [ee'] z z2 |"Ab69" z2 [ee'][ff'] [ee'][ff'][aa'][ff'] | %22
"Bbm9" [ee'][ff'][ee'][dd'] [Bb] z z2 |1 z4"Fm7/Ab" [Acef]4 :|2 z8 || %25
"Abm7"!mp! [_CEG]4- [CEG]3 [CE-G-] | [_CEG]8 |"Ebm7" [G,B,D]4- [G,B,D]3 [G,B,D]- | [G,B,D]8 | %29
"Abm7" [_CEG]4- [CEG]3 [CEG]- | [CEG]8 |"Eb" [=G,B,]8 |"F7" [=A,C]8 || %33
"Gbmaj7"!mf! [ee'][ff'][ee'][Bb] [ee'] z z2 |"Ab69" z2 [ee'][ff'] [ee'][ff'][aa'][ff'] | %35
"Bbm9" [ee'][ff'][ee'][Bb] [dd'] z z2 | z2!8va(! [d'd'']2"Fm/Ab" [c'c''][aa'] [ff']2!8va)! | %37
"Gbmaj7" [ee'][ff'][ee'][Bb] [ee'] z z2 |"Ab69" z2 [ee'][ff'] [ee'][ff'][aa'][ff'] | %39
"Bbm9" [ee'][ff'][ee'][dd'] [Bb] z z2 | z4"Fm7/Ab" [Acef]4 | %41
"Gbmaj7" [ee'][ff'][ee'][Bb] [ee'] z z2 |"Ab69" z2 [ee'][ff'] [ee'][ff'][aa'][ff'] | %43
"Bbm9" [ee'][ff'][ee'][Bb] [dd'] z z2 | z2!8va(! [d'd'']2"Fm/Ab" [c'c''][aa'] [ff']2!8va)! | %45
"Eb/G" [ee'][ff'][ee'][Bb] [ee'] z z2 |"Ab7/Gb" z2 [ee'][ff'] [ee'][ff'][aa'][ff'] | %47
"Db/F" [ee'][ff'][ee'][dd']"Eb" [Bb]3 d |"Ab" [CE]4 [CE]4 ||"Gbmaj7" !arpeggio![GBdf]8 | %50
"Gbmaj7b5" [B,CF][B,CF][B,CF][B,CF]"Ebm6/Gb" [B,CE][B,CE][B,CE][B,CE] | %51
"Db9/F" [A,DE][A,DE][A,DE][A,DE] [A,DE][A,DE][A,DE][A,DE] | %52
"Db/F" [A,D][A,D][A,D][A,D] [A,D][A,D][A,D][A,D] | %53
"Gbmaj7" [B,DF][B,DF][B,DF][B,DF] [B,DF][B,DF][B,DF][B,DF] | %54
"Gbmaj7b5" [B,CF][B,CF][B,CF][B,CF]"Ebm6/Gb" [B,CE][B,CE][B,CE][B,CE] | %55
"Db9/F" [A,DE][A,DE][A,DE][A,DE] [A,DE][A,DE][A,DE][A,DE] | %56
"Db/F" [A,D][A,D][A,D][A,D] [A,D][A,D][A,D][A,D]!D.S.! ||O z4"Fm7/Ab" [Acef]4 | %58
"Gbmaj7" [ee'][ff'][ee'][Bb] [ee'] z z2 |"Ab69" z2 [ee'][ff'] [ee'][ff'][aa'][ff'] | %60
"Bbm9" [ee'][ff'][ee'][Bb] [dd'] z z2 |"Fm/Ab" z2!8va(! [d'd'']2 [c'c''][aa'] [ff']2!8va)! | %62
"Gbmaj7" [ee'][ff'][ee'][Bb] [ee'] z z2 |"Ab69" z2 [ee'][ff'] [ee'][ff'][aa'][ff'] | %64
"Bbm9" [ee'][ff'][ee'][dd'] [Bb] z z2 | z4"Fm7/Ab" [Acef]4 | %66
"Gbmaj7" [ee'][ff'][ee'][Bb] [ee'] z z2 |"Ab69" z2 [ee'][ff'] [ee'][ff'][aa'][ff'] | %68
"Bbm9" [ee'][ff'][ee'][Bb] [dd'] z z2 |"Fm/Ab" z2!8va(! [d'd'']2 [c'c''][aa'] [ff']2!8va)! | %70
"Eb/G" [ee'][ff'][ee'][Bb] [ee'] z z2 |"Ab7/Gb" z2 [ee'][ff'] [ee'][ff'][aa'][ff'] | %72
 [ee'][ff'][ee'][dd'] [Bb]3 d | B3 A A2 F2 |"Gbmaj7" !arpeggio!!fermata![G,B,DF]8 |] %75
V:2
 [G,B,DF]6- | [G,B,DF]6 | [A,CEF]6- | [A,CEF]6 | [F,A,DE]6- | [F,A,DE]6 | [B,CDF]6- | [B,CDF]6 | %8
 [G,B,DF]6- | [G,B,DF]6 | [A,CEF]6- | [A,CEF]6 | [F,A,DE]6- | [F,A,DE]6 | [B,CDF]6- | [B,CDF]6 :: %16
[M:4/4][K:bass]"^G♭" [G,,G,]8 |"^A♭" [A,,A,]8 |"^B♭" [B,,B,]8 |"^B♭" [B,,B,]4"^A♭" [A,,A,]4 | %20
"^G♭" [G,,G,]8 |"^A♭" [A,,A,]8 |"^B♭" [B,,B,]8- |1"^B♭" [B,,B,]4"^A♭" [A,,A,]4 :|2 %24
"^B♭" [B,,B,]4"^C" C,2"^D♭" D,2 ||"^A♭" A,,8 |"^A♭" A,,8 |"^E♭" E,,8 |"^E♭" E,,8 |"^E♭" E,,8 | %30
"^A♭" A,,8 |"^E♭" E,,8 |"^F" F,,8 ||"^G♭" [G,,G,]8 |"^A♭" [A,,A,]8 |"^B♭" [B,,B,]8 | %36
"^B♭" [B,,B,]4"^A♭" [A,,A,]4 |"^G♭" [G,,G,]8 |"^A♭" [A,,A,]8 |"^B♭" [B,,B,]8- | %40
"^B♭" [B,,B,]4"^A♭" [A,,A,]4 |"^G♭" [G,,G,]8 |"^A♭" [A,,A,]8 |"^B♭" [B,,B,]8 | %44
"^B♭" [B,,B,]4"^A♭" [A,,A,]4 |"^G" [=G,,=G,]8 |"^G♭" [_G,,_G,]8 |"^F" [F,,F,]4"^E♭" [E,,E,]4 | %48
"^A♭" [A,,A,]4"^A♭" [A,,A,]4 ||"^G♭" G,,8- |"^G♭" G,,8 |"^F" F,,8- |"^F" F,,8 |"^G♭" G,,8- | %54
"^G♭" G,,8 |"^F" F,,8- |"^F" F,,8 ||"^B♭" [B,,B,]4"^A♭" [A,,A,]4 |"^G♭" [G,,G,]8 |"^A♭" [A,,A,]8 | %60
"^B♭" [B,,B,]8 |"^B♭" [B,,B,]4"^A♭" [A,,A,]4 |"^G♭" [G,,G,]8 |"^A♭" [A,,A,]8 |"^B♭" [B,,B,]8- | %65
"^B♭" [B,,B,]4"^A♭" [A,,A,]4 |"^G♭" [G,,G,]8 |"^A♭" [A,,A,]8 |"^B♭" [B,,B,]8 | %69
"^B♭" [B,,B,]4"^A♭" [A,,A,]4 |"^G" [=G,,=G,]8 |"^G♭" [_G,,_G,]8 |"^F" [F,,F,]4"^E♭" [E,,E,]4 | %73
"^A♭" [A,,A,]4"^A♭" [A,,A,]4 |"^G♭" !arpeggio!!fermata![G,,,G,,]8 |] %75
V:3
 x6 | x6 | x6 | x6 | x6 | x6 | x6 | x6 | x6 | x6 | x6 | x6 | x6 | x6 | x6 | x6 ::[M:4/4] x8 | x8 | %18
 x8 |!8va(! x8!8va)! | x8 | x8 | x8 |1 x8 :|2 x8 || BABA- AB z B- | BABA- ABAG | FEFE- EF z F- | %28
 FEFE- EEFG | BABA- AB z B- | BABA- ABAG | FEFB- B F2 F- | FEF=A- A4 || x8 | x8 | x8 | %36
 x2!8va(! x6!8va)! | x8 | x8 | x8 | x8 | x8 | x8 | x8 | x2!8va(! x6!8va)! | x8 | x8 | x8 | %48
 B3 A A2 F2 || z2 [B,DF][B,DF] [B,DF][B,DF][B,DF][B,DF] | x8 | x8 | x8 | x8 | x8 | x8 | x8 || x8 | %58
 x8 | x8 | x8 | x2!8va(! x6!8va)! | x8 | x8 | x8 | x8 | x8 | x8 | x8 | x2!8va(! x6!8va)! | x8 | %71
 x8 | x8 | [CE]4 [CE]4 | x8 |] %75

